file/saint-gobain.svg

<svg clip-rule="evenodd" fill-rule="evenodd" stroke-linejoin="round" stroke-miterlimit="1.41421" viewBox="0 0 560 400" xmlns="http://www.w3.org/2000/svg" xmlns:xlink="http://www.w3.org/1999/xlink"><linearGradient id="a" gradientUnits="userSpaceOnUse" x1="274.507" x2="637.841" y1="487.14" y2="487.14"><stop offset="0" stop-color="#54b6ae"/><stop offset=".1" stop-color="#54b6ae"/><stop offset=".3" stop-color="#3b98da"/><stop offset=".42" stop-color="#254a9a"/><stop offset=".55" stop-color="#ed1443"/><stop offset=".84" stop-color="#f25c19"/><stop offset="1" stop-color="#f25c19"/></linearGradient><g fill-rule="nonzero"><g fill="#254a9a"><path d="m0 0c-6.72 2.037-9.664 3.33-9.664 7.174 0 3.439 4.581 4.66 8.504 4.66 3.431 0 7.12-1.021 9.626-2.661.594-.386 1.323-.503 2.003-.314.681.182 1.255.654 1.573 1.285l1.141 2.283c.559 1.126.193 2.495-.862 3.186-3.609 2.359-8.73 3.821-13.364 3.821-9.736 0-16.282-5-16.282-12.442 0-9.668 8.167-12.113 14.721-14.082 6.864-2.056 9.864-3.379 9.827-7.465 0-4.101-4.827-5.56-9.343-5.56-4.328 0-9.037 2.302-11.898 4.944-.571.525-1.308.828-2.071.741-.768-.087-1.452-.529-1.849-1.195l-1.315-2.222c-.586-.979-.423-2.23.389-3.031 4.245-4.18 10.636-6.781 16.683-6.781 10.205 0 17.061 5.296 17.061 13.146.079 9.974-8.217 12.491-14.88 14.513" transform="matrix(.74315155146 0 0 -.74315155146 114.56870378 254.63531817)"/><path d="m0 0c-.404.881-1.285 1.448-2.256 1.448h-2.699c-.975 0-1.856-.567-2.256-1.456l-19.026-41.949c-.348-.771-.284-1.659.17-2.369.461-.715 1.243-1.138 2.086-1.138h2.759c.975 0 1.859.571 2.26 1.459l4.743 10.484h21.355l4.8-10.495c.404-.881 1.285-1.448 2.252-1.448h2.763c.847 0 1.629.431 2.086 1.141.458.707.518 1.599.167 2.374zm-10.896-26.037 7.271 16.12 7.355-16.12z" transform="matrix(.74315155146 0 0 -.74315155146 147.98101055 241.35550089)"/><path d="m0 0h-2.517c-1.368 0-2.48-1.111-2.48-2.479v-41.949c0-1.372 1.112-2.48 2.48-2.48h2.517c1.368 0 2.479 1.108 2.479 2.48v41.949c0 1.368-1.111 2.479-2.479 2.479" transform="matrix(.74315155146 0 0 -.74315155146 171.50507774 240.28325676)"/><path d="m0 0h-2.46c-1.376 0-2.484-1.111-2.484-2.479v-30.554l-23.546 32.024c-.469.639-1.21 1.009-1.999 1.009h-2.941c-1.372 0-2.479-1.111-2.479-2.479v-41.949c0-1.372 1.107-2.48 2.479-2.48h2.517c1.372 0 2.483 1.108 2.483 2.48v30.538l23.486-32.012c.465-.632 1.21-1.006 2.004-1.006h2.94c1.368 0 2.479 1.108 2.479 2.48v41.949c0 1.368-1.111 2.479-2.479 2.479" transform="matrix(.74315155146 0 0 -.74315155146 210.39867965 240.28325676)"/><path d="m0 0h-30.852c-1.368 0-2.476-1.111-2.476-2.479v-2.465c0-1.364 1.108-2.475 2.476-2.475h11.69v-37.009c0-1.372 1.111-2.48 2.479-2.48h2.514c1.375 0 2.486 1.108 2.486 2.48v37.009h11.683c1.372 0 2.479 1.111 2.479 2.475v2.465c0 1.368-1.107 2.479-2.479 2.479" transform="matrix(.74315155146 0 0 -.74315155146 242.55336413 240.28325676)"/><path d="m0 0h-13.387c-1.368 0-2.479-1.107-2.479-2.479v-2.041c0-1.372 1.111-2.48 2.479-2.48h13.387c1.368 0 2.476 1.108 2.476 2.48v2.041c0 1.372-1.108 2.479-2.476 2.479" transform="matrix(.74315155146 0 0 -.74315155146 256.26502826 257.27695695)"/><path d="m0 0h-2.283c-.011 0-.026-.004-.041-.004h-7.446c-1.372 0-2.483-1.111-2.483-2.479v-2.521c0-1.368 1.111-2.479 2.483-2.479h5.012v-7.669c-2.922-2.003-6.433-3.092-10.005-3.092-9.256 0-16.785 7.257-16.785 16.18 0 8.894 7.529 16.128 16.785 16.128 4.297 0 8.527-1.584 11.607-4.347.507-.453 1.179-.684 1.856-.627.68.053 1.304.385 1.731.914l1.5 1.86c.832 1.039.707 2.551-.298 3.428-4.505 3.95-10.333 6.134-16.396 6.134-13.379 0-24.268-10.533-24.268-23.49 0-12.982 10.832-23.539 24.147-23.539 6.021 0 12.03 2.208 16.505 6.059.545.469.862 1.157.862 1.882v15.183c0 1.364-1.115 2.479-2.483 2.479" transform="matrix(.74315155146 0 0 -.74315155146 295.00063742 256.15836828)"/><path d="m0 0c-13.346 0-24.204-10.534-24.204-23.486 0-12.986 10.858-23.543 24.204-23.543s24.208 10.557 24.208 23.543c0 12.952-10.862 23.486-24.208 23.486m0-39.609c-9.192 0-16.668 7.234-16.668 16.123 0 8.859 7.476 16.063 16.668 16.063 9.188 0 16.664-7.204 16.664-16.063 0-8.889-7.476-16.123-16.664-16.123" transform="matrix(.74315155146 0 0 -.74315155146 321.13685141 240.23480565)"/><path d="m0 0c2.525 2.173 3.927 5.374 3.927 9.267 0 7.934-5.964 12.862-15.564 12.862h-17.167c-1.364 0-2.475-1.111-2.475-2.479v-41.953c0-1.368 1.111-2.479 2.475-2.479h17.288c10.987 0 17.541 5.144 17.541 13.757 0 4.876-2.204 8.754-6.025 11.025m-11.698 3.103h-12.105v11.603h12.105c3.712 0 8.145-.994 8.145-5.741 0-3.889-2.74-5.862-8.145-5.862m-12.105-7.419h12.105c3.825 0 10.243-.832 10.243-6.403 0-5.491-5.567-6.644-10.243-6.644h-12.105z" transform="matrix(.74315155146 0 0 -.74315155146 368.64632462 256.72503561)"/><path d="m0 0c-.404.881-1.285 1.448-2.256 1.448h-2.699c-.979 0-1.859-.567-2.264-1.456l-19.022-41.949c-.348-.771-.284-1.659.177-2.369.458-.715 1.24-1.138 2.087-1.138h2.759c.975 0 1.859.571 2.26 1.459l4.743 10.484h21.347l4.8-10.495c.404-.881 1.289-1.448 2.256-1.448h2.759c.843 0 1.633.431 2.087 1.141.457.707.521 1.599.17 2.374zm-10.896-26.037 7.271 16.12 7.355-16.12z" transform="matrix(.74315155146 0 0 -.74315155146 395.74734767 241.35550089)"/><path d="m0 0h-2.521c-1.368 0-2.483-1.111-2.483-2.479v-41.949c0-1.372 1.115-2.48 2.483-2.48h2.521c1.368 0 2.487 1.108 2.487 2.48v41.949c0 1.368-1.119 2.479-2.487 2.479" transform="matrix(.74315155146 0 0 -.74315155146 419.26930829 240.28325676)"/><path d="m0 0h-2.464c-1.368 0-2.476-1.111-2.476-2.479v-30.554l-23.55 32.024c-.465.639-1.21 1.009-1.999 1.009h-2.941c-1.372 0-2.483-1.111-2.483-2.479v-41.949c0-1.372 1.111-2.48 2.483-2.48h2.521c1.368 0 2.476 1.108 2.476 2.48v30.538l23.493-32.012c.465-.632 1.206-1.006 1.996-1.006h2.944c1.368 0 2.476 1.108 2.476 2.48v41.949c0 1.368-1.108 2.479-2.476 2.479" transform="matrix(.74315155146 0 0 -.74315155146 458.16080363 240.28325676)"/></g><path d="m485.854 466.775v-41.242h-7.593v46.916zm147.202-41.106h-29.87l-.212.208-26.271 25.984c-1.07 1.059-2.717 1.384-4.112.802-1.414-.59-2.328-1.958-2.328-3.489v-23.641h-7.805v58.504c0 1.035-.435 2.037-1.187 2.747l-21.827 20.614c-.703.665-1.629 1.032-2.596 1.032h-10.912c-2.086 0-3.783-1.697-3.783-3.78v-79.117h-7.744v127.015c0 1.542-.922 2.914-2.347 3.496-1.399.575-3.077.227-4.128-.843l-36.147-36.68c-.703-.711-1.088-1.655-1.088-2.653v-28.335l-14.801 11.051c-1.346 1.002-3.318.968-4.626-.079l-33.653-26.979c-.9-.722-1.414-1.799-1.414-2.952v-43.041h-7.627v23.724c0 8.33-5.737 17.186-16.361 17.186-10.628 0-16.362-8.897-16.362-17.269v-23.641l-7.714.004v16.093c0 6.524-4.49 13.452-12.812 13.452-8.323 0-12.813-6.936-12.813-13.467v-16.086l-7.684-.003-.004.714c-.011 3.243-.022 7.397-.022 9.063 0 5.541-5.231 10.398-11.195 10.398s-11.195-4.834-11.195-10.349v-9.819l-33.699.004c-2.086 0-3.779-1.697-3.783-3.78 0-1.012.393-1.961 1.108-2.675.714-.715 1.663-1.108 2.672-1.108l37.481-.004c1.009 0 1.962.393 2.672 1.108.715.714 1.112 1.663 1.112 2.672v12.918c0 1.399 1.523 3.474 3.632 3.474 2.078 0 3.636-1.898 3.636-3.595 0-.971.037-12.82.037-12.82.012-2.078 1.705-3.768 3.78-3.768l15.235.011c2.083 0 3.78 1.697 3.78 3.78v19.865c0 2.045 1.096 5.908 5.25 5.908 4.153 0 5.253-3.852 5.253-5.893v-19.869c0-2.086 1.693-3.783 3.776-3.783l15.273-.008c.998 0 1.973.405 2.676 1.108s1.107 1.678 1.107 2.672v27.424c0 3.356 1.841 9.71 8.803 9.71 6.455 0 8.798-5.756 8.798-9.627v-27.507c0-2.083 1.697-3.78 3.78-3.78h15.19c2.086 0 3.779 1.697 3.779 3.78v45.01l.273.22 29.68 23.795 16.982-12.68v-56.345c0-2.083 1.697-3.78 3.779-3.78h15.16c2.082 0 3.779 1.697 3.779 3.78v46.923c0 1.183-.57 2.317-1.519 3.027l-13.637 10.186v32.432l.208.212 28.377 28.796v-121.576c0-2.083 1.697-3.78 3.78-3.78h15.31c2.083 0 3.78 1.697 3.78 3.78v79.121h5.628l.208-.197 19.343-18.266v-60.658c0-2.083 1.697-3.78 3.78-3.78h15.367c2.087 0 3.784 1.697 3.784 3.78v18.368l21.146-20.915c.714-.703 1.659-1.093 2.657-1.093h31.427c2.086 0 3.783 1.697 3.783 3.78 0 2.086-1.697 3.779-3.783 3.779" fill="url(#a)" transform="matrix(.74315155146 0 0 -.74315155146 -58.68614587 538.25126355)"/></g></svg>

<?xml version="1.0" encoding="UTF-8" standalone="no"?>
<!DOCTYPE svg PUBLIC "-//W3C//DTD SVG 1.1//EN" "http://www.w3.org/Graphics/SVG/1.1/DTD/svg11.dtd">
<svg width="100%" height="100%" viewBox="0 0 560 400" version="1.1" xmlns="http://www.w3.org/2000/svg" xmlns:xlink="http://www.w3.org/1999/xlink" xml:space="preserve" xmlns:serif="http://www.serif.com/" style="fill-rule:evenodd;clip-rule:evenodd;stroke-linejoin:round;stroke-miterlimit:1.41421;">
    <g transform="matrix(2.10657,0,0,2.10657,-424.195,-1430.37)">
        <g id="path2908" transform="matrix(0.352778,0,0,-0.352778,255.754,799.881)">
            <path d="M0,0C-6.72,2.037 -9.664,3.33 -9.664,7.174C-9.664,10.613 -5.083,11.834 -1.16,11.834C2.271,11.834 5.96,10.813 8.466,9.173C9.06,8.787 9.789,8.67 10.469,8.859C11.15,9.041 11.724,9.513 12.042,10.144L13.183,12.427C13.742,13.553 13.376,14.922 12.321,15.613C8.712,17.972 3.591,19.434 -1.043,19.434C-10.779,19.434 -17.325,14.434 -17.325,6.992C-17.325,-2.676 -9.158,-5.121 -2.604,-7.09C4.26,-9.146 7.26,-10.469 7.223,-14.555C7.223,-18.656 2.396,-20.115 -2.12,-20.115C-6.448,-20.115 -11.157,-17.813 -14.018,-15.171C-14.589,-14.646 -15.326,-14.343 -16.089,-14.43C-16.857,-14.517 -17.541,-14.959 -17.938,-15.625L-19.253,-17.847C-19.839,-18.826 -19.676,-20.077 -18.864,-20.878C-14.619,-25.058 -8.228,-27.659 -2.181,-27.659C8.024,-27.659 14.88,-22.363 14.88,-14.513C14.959,-4.539 6.663,-2.022 0,0" style="fill:rgb(37,74,154);fill-rule:nonzero;"/>
        </g>
        <g id="path2912" transform="matrix(0.352778,0,0,-0.352778,271.615,793.577)">
            <path d="M0,0C-0.404,0.881 -1.285,1.448 -2.256,1.448L-4.955,1.448C-5.93,1.448 -6.811,0.881 -7.211,-0.008L-26.237,-41.957C-26.585,-42.728 -26.521,-43.616 -26.067,-44.326C-25.606,-45.041 -24.824,-45.464 -23.981,-45.464L-21.222,-45.464C-20.247,-45.464 -19.363,-44.893 -18.962,-44.005L-14.219,-33.521L7.136,-33.521L11.936,-44.016C12.34,-44.897 13.221,-45.464 14.188,-45.464L16.951,-45.464C17.798,-45.464 18.58,-45.033 19.037,-44.323C19.495,-43.616 19.555,-42.724 19.204,-41.949L0,0ZM-10.896,-26.037L-3.625,-9.917L3.73,-26.037L-10.896,-26.037" style="fill:rgb(37,74,154);fill-rule:nonzero;"/>
        </g>
        <g id="path2916" transform="matrix(0.352778,0,0,-0.352778,282.782,793.068)">
            <path d="M0,0L-2.517,0C-3.885,0 -4.997,-1.111 -4.997,-2.479L-4.997,-44.428C-4.997,-45.8 -3.885,-46.908 -2.517,-46.908L0,-46.908C1.368,-46.908 2.479,-45.8 2.479,-44.428L2.479,-2.479C2.479,-1.111 1.368,0 0,0" style="fill:rgb(37,74,154);fill-rule:nonzero;"/>
        </g>
        <g id="path2920" transform="matrix(0.352778,0,0,-0.352778,301.245,793.068)">
            <path d="M0,0L-2.46,0C-3.836,0 -4.944,-1.111 -4.944,-2.479L-4.944,-33.033L-28.49,-1.009C-28.959,-0.37 -29.7,0 -30.489,0L-33.43,0C-34.802,0 -35.909,-1.111 -35.909,-2.479L-35.909,-44.428C-35.909,-45.8 -34.802,-46.908 -33.43,-46.908L-30.913,-46.908C-29.541,-46.908 -28.43,-45.8 -28.43,-44.428L-28.43,-13.89L-4.944,-45.902C-4.479,-46.534 -3.734,-46.908 -2.94,-46.908L0,-46.908C1.368,-46.908 2.479,-45.8 2.479,-44.428L2.479,-2.479C2.479,-1.111 1.368,0 0,0" style="fill:rgb(37,74,154);fill-rule:nonzero;"/>
        </g>
        <g id="path2924" transform="matrix(0.352778,0,0,-0.352778,316.509,793.068)">
            <path d="M0,0L-30.852,0C-32.22,0 -33.328,-1.111 -33.328,-2.479L-33.328,-4.944C-33.328,-6.308 -32.22,-7.419 -30.852,-7.419L-19.162,-7.419L-19.162,-44.428C-19.162,-45.8 -18.051,-46.908 -16.683,-46.908L-14.169,-46.908C-12.794,-46.908 -11.683,-45.8 -11.683,-44.428L-11.683,-7.419L0,-7.419C1.372,-7.419 2.479,-6.308 2.479,-4.944L2.479,-2.479C2.479,-1.111 1.372,0 0,0" style="fill:rgb(37,74,154);fill-rule:nonzero;"/>
        </g>
        <g id="path2928" transform="matrix(0.352778,0,0,-0.352778,323.018,801.135)">
            <path d="M0,0L-13.387,0C-14.755,0 -15.866,-1.107 -15.866,-2.479L-15.866,-4.52C-15.866,-5.892 -14.755,-7 -13.387,-7L0,-7C1.368,-7 2.476,-5.892 2.476,-4.52L2.476,-2.479C2.476,-1.107 1.368,0 0,0" style="fill:rgb(37,74,154);fill-rule:nonzero;"/>
        </g>
        <g id="path2932" transform="matrix(0.352778,0,0,-0.352778,341.406,800.604)">
            <path d="M0,0L-2.283,0C-2.294,0 -2.309,-0.004 -2.324,-0.004L-9.77,-0.004C-11.142,-0.004 -12.253,-1.115 -12.253,-2.483L-12.253,-5.004C-12.253,-6.372 -11.142,-7.483 -9.77,-7.483L-4.758,-7.483L-4.758,-15.152C-7.68,-17.155 -11.191,-18.244 -14.763,-18.244C-24.019,-18.244 -31.548,-10.987 -31.548,-2.064C-31.548,6.83 -24.019,14.064 -14.763,14.064C-10.466,14.064 -6.236,12.48 -3.156,9.717C-2.649,9.264 -1.977,9.033 -1.3,9.09C-0.62,9.143 0.004,9.475 0.431,10.004L1.931,11.864C2.763,12.903 2.638,14.415 1.633,15.292C-2.872,19.242 -8.7,21.426 -14.763,21.426C-28.142,21.426 -39.031,10.893 -39.031,-2.064C-39.031,-15.046 -28.199,-25.603 -14.884,-25.603C-8.863,-25.603 -2.854,-23.395 1.621,-19.544C2.166,-19.075 2.483,-18.387 2.483,-17.662L2.483,-2.479C2.483,-1.115 1.368,0 0,0" style="fill:rgb(37,74,154);fill-rule:nonzero;"/>
        </g>
        <g id="path2936" transform="matrix(0.352778,0,0,-0.352778,353.813,793.045)">
            <path d="M0,0C-13.346,0 -24.204,-10.534 -24.204,-23.486C-24.204,-36.472 -13.346,-47.029 0,-47.029C13.346,-47.029 24.208,-36.472 24.208,-23.486C24.208,-10.534 13.346,0 0,0M0,-39.609C-9.192,-39.609 -16.668,-32.375 -16.668,-23.486C-16.668,-14.627 -9.192,-7.423 0,-7.423C9.188,-7.423 16.664,-14.627 16.664,-23.486C16.664,-32.375 9.188,-39.609 0,-39.609" style="fill:rgb(37,74,154);fill-rule:nonzero;"/>
        </g>
        <g id="path2940" transform="matrix(0.352778,0,0,-0.352778,376.366,800.873)">
            <path d="M0,0C2.525,2.173 3.927,5.374 3.927,9.267C3.927,17.201 -2.037,22.129 -11.637,22.129L-28.804,22.129C-30.168,22.129 -31.279,21.018 -31.279,19.65L-31.279,-22.303C-31.279,-23.671 -30.168,-24.782 -28.804,-24.782L-11.516,-24.782C-0.529,-24.782 6.025,-19.638 6.025,-11.025C6.025,-6.149 3.821,-2.271 0,0M-11.698,3.103L-23.803,3.103L-23.803,14.706L-11.698,14.706C-7.986,14.706 -3.553,13.712 -3.553,8.965C-3.553,5.076 -6.293,3.103 -11.698,3.103M-23.803,-4.316L-11.698,-4.316C-7.873,-4.316 -1.455,-5.148 -1.455,-10.719C-1.455,-16.21 -7.022,-17.363 -11.698,-17.363L-23.803,-17.363L-23.803,-4.316" style="fill:rgb(37,74,154);fill-rule:nonzero;"/>
        </g>
        <g id="path2944" transform="matrix(0.352778,0,0,-0.352778,389.231,793.577)">
            <path d="M0,0C-0.404,0.881 -1.285,1.448 -2.256,1.448L-4.955,1.448C-5.934,1.448 -6.814,0.881 -7.219,-0.008L-26.241,-41.957C-26.589,-42.728 -26.525,-43.616 -26.064,-44.326C-25.606,-45.041 -24.824,-45.464 -23.977,-45.464L-21.218,-45.464C-20.243,-45.464 -19.359,-44.893 -18.958,-44.005L-14.215,-33.521L7.132,-33.521L11.932,-44.016C12.336,-44.897 13.221,-45.464 14.188,-45.464L16.947,-45.464C17.79,-45.464 18.58,-45.033 19.034,-44.323C19.491,-43.616 19.555,-42.724 19.204,-41.949L0,0ZM-10.896,-26.037L-3.625,-9.917L3.73,-26.037L-10.896,-26.037" style="fill:rgb(37,74,154);fill-rule:nonzero;"/>
        </g>
        <g id="path2948" transform="matrix(0.352778,0,0,-0.352778,400.397,793.068)">
            <path d="M0,0L-2.521,0C-3.889,0 -5.004,-1.111 -5.004,-2.479L-5.004,-44.428C-5.004,-45.8 -3.889,-46.908 -2.521,-46.908L0,-46.908C1.368,-46.908 2.487,-45.8 2.487,-44.428L2.487,-2.479C2.487,-1.111 1.368,0 0,0" style="fill:rgb(37,74,154);fill-rule:nonzero;"/>
        </g>
        <g id="path2952" transform="matrix(0.352778,0,0,-0.352778,418.859,793.068)">
            <path d="M0,0L-2.464,0C-3.832,0 -4.94,-1.111 -4.94,-2.479L-4.94,-33.033L-28.49,-1.009C-28.955,-0.37 -29.7,0 -30.489,0L-33.43,0C-34.802,0 -35.913,-1.111 -35.913,-2.479L-35.913,-44.428C-35.913,-45.8 -34.802,-46.908 -33.43,-46.908L-30.909,-46.908C-29.541,-46.908 -28.433,-45.8 -28.433,-44.428L-28.433,-13.89L-4.94,-45.902C-4.475,-46.534 -3.734,-46.908 -2.944,-46.908L0,-46.908C1.368,-46.908 2.476,-45.8 2.476,-44.428L2.476,-2.479C2.476,-1.111 1.368,0 0,0" style="fill:rgb(37,74,154);fill-rule:nonzero;"/>
        </g>
        <g id="path2982" transform="matrix(0.352778,0,0,-0.352778,173.509,934.515)">
            <path d="M485.854,466.775L485.854,425.533L478.261,425.533L478.261,472.449L485.854,466.775ZM633.056,425.669L603.186,425.669L602.974,425.877L576.703,451.861C575.633,452.92 573.986,453.245 572.591,452.663C571.177,452.073 570.263,450.705 570.263,449.174L570.263,425.533L562.458,425.533L562.458,484.037C562.458,485.072 562.023,486.074 561.271,486.784L539.444,507.398C538.741,508.063 537.815,508.43 536.848,508.43L525.936,508.43C523.85,508.43 522.153,506.733 522.153,504.65L522.153,425.533L514.409,425.533L514.409,552.548C514.409,554.09 513.487,555.462 512.062,556.044C510.663,556.619 508.985,556.271 507.934,555.201L471.787,518.521C471.084,517.81 470.699,516.866 470.699,515.868L470.699,487.533L455.898,498.584C454.552,499.586 452.58,499.552 451.272,498.505L417.619,471.526C416.719,470.804 416.205,469.727 416.205,468.574L416.205,425.533L408.578,425.533L408.578,449.257C408.578,457.587 402.841,466.443 392.217,466.443C381.589,466.443 375.855,457.546 375.855,449.174L375.855,425.533L368.141,425.537L368.141,441.63C368.141,448.154 363.651,455.082 355.329,455.082C347.006,455.082 342.516,448.146 342.516,441.615L342.516,425.529L334.832,425.526L334.828,426.24C334.817,429.483 334.806,433.637 334.806,435.303C334.806,440.844 329.575,445.701 323.611,445.701C317.647,445.701 312.416,440.867 312.416,435.352L312.416,425.533L278.717,425.537C276.631,425.537 274.938,423.84 274.934,421.757C274.934,420.745 275.327,419.796 276.042,419.082C276.756,418.367 277.705,417.974 278.714,417.974L316.195,417.97C317.204,417.97 318.157,418.363 318.867,419.078C319.582,419.792 319.979,420.741 319.979,421.75L319.979,434.668C319.979,436.067 321.502,438.142 323.611,438.142C325.689,438.142 327.247,436.244 327.247,434.547C327.247,433.576 327.284,421.727 327.284,421.727C327.296,419.649 328.989,417.959 331.064,417.959L346.299,417.97C348.382,417.97 350.079,419.667 350.079,421.75L350.079,441.615C350.079,443.66 351.175,447.523 355.329,447.523C359.482,447.523 360.582,443.671 360.582,441.63L360.582,421.761C360.582,419.675 362.275,417.978 364.358,417.978L379.631,417.97C380.629,417.97 381.604,418.375 382.307,419.078C383.01,419.781 383.414,420.756 383.414,421.75L383.414,449.174C383.414,452.53 385.255,458.884 392.217,458.884C398.672,458.884 401.015,453.128 401.015,449.257L401.015,421.75C401.015,419.667 402.712,417.97 404.795,417.97L419.985,417.97C422.071,417.97 423.764,419.667 423.764,421.75L423.764,466.76L424.037,466.98L453.717,490.775L470.699,478.095L470.699,421.75C470.699,419.667 472.396,417.97 474.478,417.97L489.638,417.97C491.72,417.97 493.417,419.667 493.417,421.75L493.417,468.673C493.417,469.856 492.847,470.99 491.898,471.7L478.261,481.886L478.261,514.318L478.469,514.53L506.846,543.326L506.846,421.75C506.846,419.667 508.543,417.97 510.626,417.97L525.936,417.97C528.019,417.97 529.716,419.667 529.716,421.75L529.716,500.871L535.344,500.871L535.552,500.674L554.895,482.408L554.895,421.75C554.895,419.667 556.592,417.97 558.675,417.97L574.042,417.97C576.129,417.97 577.826,419.667 577.826,421.75L577.826,440.118L598.972,419.203C599.686,418.5 600.631,418.11 601.629,418.11L633.056,418.11C635.142,418.11 636.839,419.807 636.839,421.89C636.839,423.976 635.142,425.669 633.056,425.669" style="fill:url(#_Linear1);fill-rule:nonzero;"/>
        </g>
    </g>
    <defs>
        <linearGradient id="_Linear1" x1="0" y1="0" x2="1" y2="0" gradientUnits="userSpaceOnUse" gradientTransform="matrix(363.334,0,0,363.334,274.507,487.14)"><stop offset="0" style="stop-color:rgb(84,182,174);stop-opacity:1"/><stop offset="0.1" style="stop-color:rgb(84,182,174);stop-opacity:1"/><stop offset="0.3" style="stop-color:rgb(59,152,218);stop-opacity:1"/><stop offset="0.42" style="stop-color:rgb(37,74,154);stop-opacity:1"/><stop offset="0.55" style="stop-color:rgb(237,20,67);stop-opacity:1"/><stop offset="0.84" style="stop-color:rgb(242,92,25);stop-opacity:1"/><stop offset="1" style="stop-color:rgb(242,92,25);stop-opacity:1"/></linearGradient>
    </defs>
</svg>
